symbols/web/local_cafe/materialsymbolsrounded/local_cafe_wght100_48px.svg

<svg xmlns="http://www.w3.org/2000/svg" height="48" width="48"><path d="M11.15 39.1q-.25 0-.4-.15-.15-.15-.15-.4t.15-.4q.15-.15.4-.15h24.5q.25 0 .4.15.15.15.15.4t-.15.4q-.15.15-.4.15Zm4.7-6.8q-2.2 0-3.725-1.525T10.6 27.05V11.6q0-1.1.825-1.9.825-.8 1.875-.8h23.2q1.1 0 1.9.8.8.8.8 1.9v4q0 1.05-.8 1.875t-1.9.825h-3.05v8.75q0 2.2-1.525 3.725T28.2 32.3Zm0-1.1H28.2q1.7 0 2.925-1.225 1.225-1.225 1.225-2.925V10H13.3q-.7 0-1.15.45-.45.45-.45 1.15v15.45q0 1.7 1.225 2.925Q14.15 31.2 15.85 31.2Zm17.6-14h3.05q.7 0 1.15-.45.45-.45.45-1.15v-4q0-.7-.45-1.15Q37.2 10 36.5 10h-3.05Zm-11.4 3.4Z"/></svg>

<svg xmlns="http://www.w3.org/2000/svg" height="48" width="48"><path d="M11.15 39.1Q10.9 39.1 10.75 38.95Q10.6 38.8 10.6 38.55Q10.6 38.3 10.75 38.15Q10.9 38 11.15 38H35.65Q35.9 38 36.05 38.15Q36.2 38.3 36.2 38.55Q36.2 38.8 36.05 38.95Q35.9 39.1 35.65 39.1ZM15.85 32.3Q13.65 32.3 12.125 30.775Q10.6 29.25 10.6 27.05V11.6Q10.6 10.5 11.425 9.7Q12.25 8.9 13.3 8.9H36.5Q37.6 8.9 38.4 9.7Q39.2 10.5 39.2 11.6V15.6Q39.2 16.65 38.4 17.475Q37.6 18.3 36.5 18.3H33.45V27.05Q33.45 29.25 31.925 30.775Q30.4 32.3 28.2 32.3ZM15.85 31.2H28.2Q29.9 31.2 31.125 29.975Q32.35 28.75 32.35 27.05V10H13.3Q12.6 10 12.15 10.45Q11.7 10.9 11.7 11.6V27.05Q11.7 28.75 12.925 29.975Q14.15 31.2 15.85 31.2ZM33.45 17.2H36.5Q37.2 17.2 37.65 16.75Q38.1 16.3 38.1 15.6V11.6Q38.1 10.9 37.65 10.45Q37.2 10 36.5 10H33.45ZM22.05 20.6Q22.05 20.6 22.05 20.6Q22.05 20.6 22.05 20.6Q22.05 20.6 22.05 20.6Q22.05 20.6 22.05 20.6Q22.05 20.6 22.05 20.6Q22.05 20.6 22.05 20.6Z"/></svg>
